packages/core/src/svgs/tokens/branded/SAKAI.svg

<svg width="24" height="24" viewBox="0 0 24 24" fill="none" xmlns="http://www.w3.org/2000/svg">
<path d="M7.5553 9.50007V4.5L3.11084 7.00001L7.5553 9.50007Z" fill="#348AA7"/>
<path d="M11.9996 7L7.55518 9.50006V14.5L11.9996 17.0001V7Z" fill="#55CF98"/>
<path d="M3.11084 7L7.5553 9.50006V14.5L3.11084 17.0001V7Z" fill="#1A6882"/>
<path d="M7.55518 4.5L11.9996 7.00001L7.55518 9.50007V4.5Z" fill="#76E8B5"/>
<path d="M3.11084 17L7.5553 14.5L11.9997 17V22L3.11084 17Z" fill="#12556B"/>
<path d="M16.4441 4.50002L11.9996 7.00003L7.55518 4.50002L11.9996 2L16.4441 4.50002Z" fill="#BCE784"/>
<path d="M12 7L16.4445 9.50006V14.5L12 17.0001V7Z" fill="#48B081"/>
<path d="M20.8893 7L16.4448 9.50006V14.5L20.8893 17.0001V7Z" fill="#1A6882"/>
<path d="M16.4445 4.5L12 7.00001L16.4445 9.50007V4.5Z" fill="#57C795"/>
<path d="M20.889 17L16.4445 14.5L12 17V22L20.889 17Z" fill="#0D3E4F"/>
<path d="M16.4448 9.50007V4.5L20.8893 7.00001L16.4448 9.50007Z" fill="#348AA7"/>
</svg>

<svg xmlns="http://www.w3.org/2000/svg" width="24" height="24" fill="none" viewBox="0 0 24 24">
    <path fill="#348AA7" d="M7.555 9.5v-5L3.111 7z"/>
    <path fill="#55CF98" d="M12 7 7.555 9.5v5L12 17z"/>
    <path fill="#1A6882" d="m3.11 7 4.445 2.5v5L3.111 17z"/>
    <path fill="#76E8B5" d="M7.555 4.5 12 7 7.555 9.5z"/>
    <path fill="#12556B" d="m3.11 17 4.445-2.5L12 17v5z"/>
    <path fill="#BCE784" d="M16.444 4.5 12 7 7.555 4.5 12 2z"/>
    <path fill="#48B081" d="m12 7 4.445 2.5v5L12 17z"/>
    <path fill="#1A6882" d="m20.89 7-4.445 2.5v5l4.444 2.5z"/>
    <path fill="#57C795" d="M16.445 4.5 12 7l4.445 2.5z"/>
    <path fill="#0D3E4F" d="m20.889 17-4.444-2.5L12 17v5z"/>
    <path fill="#348AA7" d="M16.445 9.5v-5L20.889 7z"/>
</svg>
